svg/ionicons/logo-trapeze.svg

<svg xmlns="http://www.w3.org/2000/svg" width="512" height="512" viewBox="0 0 512 512"><path d="m311.05 189.26.055-.093 64.98-110.618L257.923 8l-64.98 110.617-.096.164L8 433.451 126.162 504l85.948-146.312c14.612 17.618 32.393 33.074 53.108 45.442l168.804 100.785L504 384.789 335.197 284.004c-32.599-19.463-43.396-61.862-24.147-94.744"/></svg>

<svg width="512" height="512" viewBox="0 0 512 512" xmlns="http://www.w3.org/2000/svg">
<path d="M311.05 189.26C311.069 189.229 311.087 189.198 311.105 189.167L376.085 78.5494L257.923 8L192.943 118.617C192.911 118.672 192.879 118.726 192.847 118.781L8 433.451L126.162 504L212.11 357.688C226.722 375.306 244.503 390.762 265.218 403.13L434.022 503.915L504 384.789L335.197 284.004C302.598 264.541 291.801 222.142 311.05 189.26Z" />
</svg>
